X:1
T:贊美聖父
T:贊美聖父 PRAISE TO THE FATHER 
T:for S.A.T.B. voices, accompanied
T:Music by LEE DENGLER (ASCAP) Incorporating Tune: NICAEA by JOHN B. DYKE (1823-1876) 
T:吳燕屏 譯 Words by RAGAN COURTNEY (ASCAP) Quoting: "Holy, Holy, Holy" by REGINALD HEBER (1783-1826) 
T: 
T: 
T: 
T: 
T: 
T: 
T: 
T: 
T: 
Z:
%%score [ ( 1 2 ) ( 3 4 ) ] { ( 5 8 ) | ( 6 7 ) }
L:1/8
Q:1/4=82
M:4/4
K:D
V:1 treble nm="S A"
V:2 treble 
V:3 bass nm="T B"
V:4 bass 
V:5 treble nm="Piano"
V:8 treble 
V:6 bass 
V:7 bass 
V:1
"^With majesty (ca. 82)" z8 | z8 | z8 | z4 z2!mf! DE | [DF]3 [DF] [DF]2 [FA]2 | [FA]4 [FB]2 [Fc]2 | %6
 [Fd]3 [Fc] [FB]2 [FA]2 | [DF]8 | D3 B A2 G2 | [DA]3 D [DE]2 [DF]2 | z [DG][DG][DF] [DF]2 [DE]2 | %11
 G3 A[Q:1/4=76]!>(! E4[Q:1/4=70]!>)! |[Q:1/4=82]"^a tempo" z DD[Dd] [Ed]2 [Fc]2 | %13
 (([Ac]2 [GB]2)) [FA]4 |!mp! z DD[DA] [EA]2 [DF]2 |[Q:1/4=76]"^poco rit." E8[Q:1/4=70] | %16
[Q:1/4=82]"^a tempo" D8 | z8 | z2!<(! [DG][DA] [G_B]2 [G=c]2!<)! |!>(! [Ad]3 [FA] [FA]4!>)! | %20
 z2!<(! [G_B][G=c] [Gd]2 [Be]2!<)! |!f! [df]6 z2 |!mf! B2 Bc (d2 e2) | d3 A A2 A2 | %24
!<(! [GB]2 [DA]2 [DG]2 [DF]2!<)! |[Q:1/4=80]"^ 76""^poco rit."!>(! E8!>)![Q:1/4=66] | %26
[Q:1/4=82]"^a tempo" z DD[Dd] [Ed]2 [Fc]2 | [Ac]2 [GB]2 [FA]4 | z DD[DA]!>(! [EA]2 [DF]2!>)! | %29
[Q:1/4=76]"^rit." E8[Q:1/4=66] |[Q:1/4=82]"^a tempo"!p!!>(! D8-!>)! | D4 z4 | %32
 z [B,D][B,D][B,E] [DF]2 [DG][DA] | [DA][DB] [B,D]6 | z DDE (F2 G)A | [DA][DB] [B,D]4 [B,D][B,F] | %36
 [B,F]3 [B,E] [B,E]2 [B,E][EG] | [EG][DF][DF][DE] [DF]4 |!<(! [DB]2 [DB]2 [Fc]2 [Fc]2!<)! | %39
[M:2/4][Q:1/4=76]"^rit."!>(! [Fe]2[Q:1/4=66] [Fd][Fc]!>)! |[M:4/4][Q:1/4=82]"^a tempo"!p! d8- | %41
[Q:1/4=76]"^rit." d4[Q:1/4=66] z2 D2 | D2 F2 E3 D |"^a tempo"[Q:1/4=82] D8 | z8 | %45
 z!mf!!<(! [G_B][GB][GA] [GB]2 [G=c]2!<)! |!>(! [Fd]4 [FA]4!>)! | z _BBA!<(! B2 =c2!<)! | %48
!f! [Fd]8 | z!mf! [FB][FB][Fc] [Fd]2 [Ee]2 | [Fe]4 [Fd]2 [FA]2 | %51
 [GB]2 [Gc]2[Q:1/4=78]"^rit." [Gd]2 [Ge]2 | [Ge]4[Q:1/4=72] [Ge]2 [Ge]2 | e6!ff! [cf]2 | %54
[Q:1/4=82]"^a tempo" [df]2 A2 A2 [df]2 | [Ae]2 A4 [Ae][Ae] | [Gd]2 G2 G2 [GB]2 | [Gd]6 [Ge]2 | %58
 [df]2 A2 A2 [df]2 | [Ae]2 A4 [Ae]2 |!>(! [Gd]2 G2 G2 A2!>)! |!mf!!>(! E8-!>)! |!p! !fermata!E8 | %63
!p![Q:1/4=74] D2 D2 F2 F2 | A4 A4 | B4 B2 B2 | A4 F4 | A3 A A2 A2 |!<(! (d4- dc)BA!<)! | %69
 E2 A2!>(! B3 A!>)! | A6 z2 |!mf! f4 e4 | [Ad]4 [Ac]4 | B3 [Bd] [Bd]2 [Bd]2 | [Ae]4 [Ff]4 | %75
!f! [df]4 [Ae]2 [Ad]2 | [Bd]4 [FA]4 |"^molto rit."[Q:1/4=68] B2 d2[Q:1/4=62] (d2 c)d | %78
[Q:1/4=80]"^tempo 1"[Q:1/4=82] [Dd]8- |[Q:1/4=80]!>(! [Dd]8!>)! |[Q:1/4=78] z2!mf! [B,D]4 [B,D]2 | %81
[Q:1/4=76] [_B,D]6 [B,D]2 |[Q:1/4=74]!mp!!>(! [A,D]8-!>)! |[Q:1/4=72]!p! [A,D]8 |!pp! z8 |] %85
V:2
 x8 | x8 | x8 | x8 | x8 | x8 | x8 | x8 | D4 D2 D2 | x8 | x8 | E3 D (D2 C2) | z8 | x8 | x8 | %15
 (D4 C4) | x8 | x8 | x8 | x8 | x8 | A6 z2 | F2 FF F4 | F4 F2 F2 | x8 | x8 | x8 | x8 | x8 | %29
 (D4 C4) | x8 | x8 | x8 | x8 | z B,B,B, D3 D | x8 | x8 | x8 | x8 |[M:2/4] x4 |[M:4/4] G6 G2 | %41
 F4 x4 | B,2 B,2 D2 CA, | A,8 | x8 | x8 | x8 | x G G2 G2 G2 | x8 | x8 | x8 | x8 | x8 | G4 A2 A2 | %54
 A2 F2 F2 A2 | E2 E4 EE | D2 D2 D2 D2 | D6 D2 | A2 F2 F2 A2 | E2 E4 E2 | D2 D2 D2 D2 | (D8 | %62
 !fermata!C8) | x8 | x8 | x8 | x8 | x8 | x8 | x8 | x8 | D2 D2 F2 F2 | x8 | x8 | x8 | x8 | x8 | %77
 G2 E2 E3 D | x8 | x8 | x8 | x8 | x8 | x8 | x8 |] %85
V:3
 z8 | z8 | z8 | z4 z2!mf! [D,_B,]2 | [D,A,]3 [D,A,] [D,A,]2 [D,D]2 | [F,C]4 [F,C]2 [F,A,]2 | %6
 B,3 [B,E] [B,D]2 [B,C]2 | [A,B,]8 | [G,B,]4 [G,B,]2 [G,B,]2 | [F,A,]3 [F,A,] [F,A,]2 [F,A,]2 | %10
 z B,B,B, B,2 G,2 | =C3 G, A,4 | z8 | z8 | z D,D,A, A,2 A,2 | A,8 | A,8 | z8 | %18
 z2!<(! [G,_B,][G,=C] [G,D]2 [G,E]2!<)! |!>(! F3 D D4!>)! | z2!<(! [G,D][A,D] [_B,D]2 =C2!<)! | %21
!f! D6 z2 |!mf! [B,D]2 [B,D][B,D] [B,D]4 | [A,D]4 [A,D]2 [A,D]2 | %24
!<(! [G,D]2 [F,A,]2 [E,B,]2 [G,B,]2!<)! |!>(! (D4 C4)!>)! | z8 | z8 | z D,D,A,!>(! A,2 A,2!>)! | %29
 A,8 |!p!!>(! A,8-!>)! | A,4 z4 | z F,F,F, B,2 B,F, | G,G, G,6 | z F,F,F, B,3 F, | %35
 G,G, G,4 G,[F,G,] | [E,G,]3 [E,G,] [E,G,]2 [E,G,][E,B,] | B,B,B,B, B,4 | %38
!<(! B,2 [G,B,]2 [F,^A,]2 [^A,C]2!<)! |[M:2/4]!>(! [B,D]2 [B,D][B,D]!>)! |[M:4/4]!p! D8- | %41
 D4 z2 A,2 | [A,,G,]2 [A,,G,]2 [A,,G,]2 [A,,G,]2 | [D,F,]8 | z8 | %45
 z!mf!!<(! [G,D][G,D][G,=C] [G,D]2 [G,A,]2!<)! |!>(! [D,A,]4 [D,D]4!>)! | z DD=C!<(! D2 A,2!<)! | %48
!f! [D,A,]8 | z!mf! [B,D][B,D][B,D] [B,D]2 [B,D]2 | [A,D]4 [A,D]2 [A,D]2 | %51
 [G,D]2 [F,D]2 [E,B,]2 [D,B,]2 | [=C,G,=C]4 C2 [B,D]2 | D4 ^C2!ff! C2 | D2 D2 D2 D2 | C2 C4 CC | %56
 B,2 B,2 B,2 B,2 | _B,6 B,2 | D2 D2 D2 D2 | C2 C4 C2 |!>(! B,2 B,2 B,2 B,2!>)! |!mf!!>(! A,8-!>)! | %62
!p! !fermata!A,8 |!p! D,2 D,2 F,2 F,2 | A,4 A,4 | B,4 B,2 B,2 | A,4 F,4 | A,3 A, A,2 A,2 | %68
!<(! (D4- DC)B,A,!<)! | E,2 A,2!>(! B,3 A,!>)! | A,6 z2 |!mf! F4 E4 | [A,D]4 [A,C]4 | %73
 B,3 [B,D] [B,D]2 [B,D]2 | [A,E]4 [F,F]4 |!f! [DF]4 [A,E]2 [A,D]2 | [B,D]4 [F,A,]4 | %77
 B,2 D2 (D2 C)D | [D,D]8- |!>(! [D,D]8!>)! | z2!mf! [D,G,]4 [D,G,]2 | [D,G,]6 [D,G,]2 | %82
!mp!!>(! [D,,A,,D,F,]8-!>)! |!p! [D,,A,,D,F,]8 |!pp! z8 |] %85
V:4
 x8 | x8 | x8 | x8 | x8 | x8 | x8 | x8 | x8 | x8 | x E,E,E, E,2 E,D, | =C,2 B,,2 A,,4 | x8 | x8 | %14
 z D,D,E, F,3 G, | A,8 | D,8 | x8 | x8 | [D,A,]3 [D,A,] [D,A,]4 | x8 | x8 | x8 | x8 | x8 | A,8 | %26
 x8 | x8 | z D,D,E, F,3 G, | A,8 | D,8- | D,4 z4 | x8 | x8 | x8 | x8 | x8 | %37
 B,,B,,B,,B,, (B,,2 A,,2) | x8 |[M:2/4] x4 |[M:4/4] _B,6 B,2 | A,4 x4 | x8 | x8 | x8 | x8 | x8 | %47
 z G, G,2 G,2 G,2 | x8 | x8 | x8 | x8 | x8 | A,6 A,2 | [D,A,]2 [D,A,]2 [D,A,]2 [D,A,]2 | %55
 [D,A,]2 [D,A,]4 [D,A,][D,A,] | [D,G,]2 [D,G,]2 [D,G,]2 [D,G,]2 | [D,G,]6 [D,G,]2 | %58
 [D,A,]2 [D,A,]2 [D,A,]2 [D,A,]2 | [D,A,]2 [D,A,]4 [D,A,]2 | [D,G,]2 [D,G,]2 [D,G,]2 [D,G,]2 | %61
 [A,,E,]8- | !fermata![A,,E,]8 | x8 | x8 | x8 | x8 | x8 | x8 | x8 | x8 | D,2 D,2 F,2 F,2 | x8 | %73
 x8 | x8 | x8 | x8 | G,2 E,2 E,3 D, | x8 | x8 | x8 | x8 | x8 | x8 | x8 |] %85
V:5
!f! [FAdf]2 [FA]2 [FA]2 [FAdf]2 | [EAce]2 [EA]2 [EA]2 [EAce]2 | [DGBd]2 [DG]2 [DG]2 [DGB]2 | %3
!>(! [DG_Bd]2 [DG]2 [DG]2 DE!>)! |!mf! [F,A,DF]2 [F,A,DF]4 [F,A,DF]2 | [A,CFA]2 [A,CFA]4 [A,CFA]2 | %6
 [DFBd]2 [DFBd]4 [DFBd]2 | [FBdf]2 [FBdf]4 [FBdf]2 | [GBdg]2 [GBdg]4 [DGBd]2 | %9
 [DAd]2 [DAd]4 [A,DA]2 | G2 GF F2 E2 | [EG]3 A!>(! [A,E]4!>)! | z DDd dd' c'2 | c'2 b2 a4 | %14
!mp! D3 A A2 F2 | EAAe eaae' | %16
!f! !tenuto![fad'f']2 !tenuto![Adfa]2 !tenuto![eac'e']2 !tenuto![Acea]2 | %17
 [gbd']2!>(!{g} !tenuto![Gg][Aa] [Gg][Ff][Ee][Dd]!>)! | %18
!mf! [DG_B]_B,[DGB]!<(!B, [DGB]B,[DGB]B,!<)! |!>(! [DFA]A,[DFA]A, z ddA!>)! | %20
 [DG_B]_B,[DGB]B, [DGB]B,[DGB]B, | [DFA]A,[DFA]A, z!>(! !tenuto!d!tenuto!d!tenuto!A!>)! | %22
!mf! [B,DF]F,[B,DF]F, [B,DF]F,[B,DF]F, | [A,DF]F,[A,DF]F, [A,DF]F,[A,DF]F, | %24
!<(! [B,DG]G,[DA]A, [GB]/A/G F/E/D!<)! |!>(! z .A/.e/ .e/.A/.A/.e/ .e/.A/.A/.e/ a2!>)! | %26
 z ddd' d'd c2 | c2 B2 A4 | z2 DA!>(! A2 F2!>)! | E8 |!p! z ddd' d'd- d2 | z ddd' d'd- d2 | %32
 z ddd' d'd- d2 | z ddd' d'd- d2 | z ddd' d'd- d2 | z ddd' d'd- d2 | z ddd' d'd- d2 | %37
 z ddd' d'd- d2 | z!<(! ddd' c'cfc'!<)! |[M:2/4]!>(! d'2 c'b!>)! |[M:4/4]!p! dd'd'd dddD | %41
 z ddd' d'd- d2 | z ddd' e'a a2 |!<(! [fad'f']2 [Adfa]2 [eac'e']2 [Acea]2!<)! | %44
!mf! [gbd']2{g} [Gg][Aa] [Gg][Ff][Ee][Dd] |!<(! [DG_B]_B,[DGB]B, [DGB]B,[DGB]B,!<)! | %46
!>(! [DFA]A,[DFA]A, z !tenuto!d!tenuto!d!tenuto!A!>)! | [DG_B]_B,[DGB]B,!<(! [DGB]B,[DGB]B,!<)! | %48
!f! [DFA]A,[DFA]A, z!>(! !tenuto!d!tenuto!d!tenuto!A!>)! |!mf! [B,DF]F,[B,DF]F, [B,DF]F,[B,DF]F, | %50
 [A,DF]F,[A,DF]F, [A,DF]F,[DFA]A, | [B,DGB]2 [DGc]2 [DGBd]2 [EGBe]2 | [EG=ce]6 [EGce]2 | %53
 [Ee]6 [Ff]2 | [FAdf]2 [FA]2 [FA]2 [FAdf]2 | [EAce]2 [EA]2 [EA]2 [EAce]2 | %56
 [DGBd]2 [DG]2 [DG]2 [DGB]2 | [DG_Bd]2 [DG]2 [DG]2 [EGBe]2 | [FAdf]2 [FA]2 [FA]2 [FAdf]2 | %59
 [EAce]2 [EA]2 [EA]2 [EAce]2 | [DGBd]2 [DG]2 [DG]2 [DA]2 | z .A/.e/ .e/.A/.A/.e/ .e/.A/.A/.e/ a2 | %62
 z/!mf! .a/.a/.e'/ .e'/.a/.a/.e'/ .e'/.a/.a/.e'/ a'2 |!p! [F,A,D]2 [F,A,D]2 [A,DF]2 [A,DF]2 | %64
 [CEA]2 [CEA]2 [CEA]2 [CEA]2 | [DGB]2 [DGB]2 [DGB]2 [DGB]2 | [DFA]2 [DFA]2 [A,DF]2 [A,DF]2 | %67
 [B,DFA]2 [B,DFA]2 [B,DFA]2 [B,DFA]2 |!<(! [Bd]2 [Bd]2 dcBA!<)! | [CE]2 [EA]2!>(! B3 A!>)! | %70
"_cresc." z2 Ae eaag |!mf! f3 f e3 e | d3 d c3 c | B3 B d2 gf | e2 ag f2 [da]2 | %75
!f! [fbd']4 [Afa]4 | [Bdgb]4 [FAdf]4 | g2 e2 [de-]2 [ce]d | [df]2 A2 A2 [df]2 | %79
!>(! [EAce]2 [EA]2 [EA]2 [EAce]2!>)! |!mf! [DGBd]2 [DG]2 [DG]2 [DGB]2 | %81
 [DG_Bd]2 [DG]2 [DG]2 [DE]2 |!mp!!>(! [F,A,DF]2 [F,A,DF]4 [F,A,DF]2!>)! | %83
!p! [F,A,DF]2 [F,A,DF]4 [F,A,DF]2 |!pp! [fad'f']8 |] %85
V:6
!f! z2 [A,D]4 [A,D]2 | z2 [A,C]4 [A,C]2 | z2 [G,B,]4 [G,B,]2 |!>(! z2 [G,_B,]4 G,2!>)! | %4
!mf! [D,,A,,D,]2 [D,,A,,D,]4 [D,,A,,D,]2 | [F,,C,F,]2 [F,,C,F,]4 [F,,C,F,]2 | %6
 [B,,F,B,]2 [B,,F,B,]4 [B,,F,B,]2 | [A,,F,A,]2 [A,,F,A,]4 [A,,F,A,]2 | %8
 [G,,D,G,]2 [G,,D,G,]4 [G,,D,G,]2 | [F,,D,F,]2 [F,,D,F,]4 [F,,D,F,]2 | %10
 [E,,D,]2 [E,,D,]4 [E,,E,][D,,D,] | [=C,,=C,]2 [B,,,B,,]2 [A,,,A,,]4 | z F, B,2 z F, A,2 | %13
 z D, B,2 z D, A,2 | z8 | z E,A,B, C2 E2 |!f!!f! z2 [DF]2 z2 [CE]2 | %17
 z2!>(! !tenuto![B,D]2 [A,,D,]2 [D,F,]2!>)! | %18
!mf! [G,,G,]4!<(! [G,,G,] [_B,,,_B,,]2 [B,,,B,,]/[=C,,=C,]/!<)! |!>(! [D,,D,]6 [F,,F,]2!>)! | %20
 [G,,G,]4- [G,,G,] [_B,,,_B,,]2- [B,,,B,,]/[=C,,=C,]/ |!f! [D,,D,]6 [^C,,^D,]2 | %22
!mf! [B,,,B,,]6 [B,,,B,,]2 | [A,,,A,,]6 [A,,,A,,]2 | %24
!<(! [G,,,G,,]2 [F,,,F,,]2 [E,,,E,,]2 [G,,,G,,]2!<)! |!>(! [A,,,E,,A,,]8!>)! | z F, B,2 z F, A,2 | %27
 z D, G,2 z D, A,2 | D,4!>(! D,4!>)! | z E, A,6 |!p! z2 A,,2 F,2 A,2 | z2 A,2 F4 | z2 F,2 D4 | %33
 z2 D,2 B,4 | z2 D,2 D4 | z2 D,2 B,4 | z2 B,,2 G,2 B,2 | z2 F,2 D4 | %38
!<(! z2 [D,B,]2 z2 [C,^A,]2!<)! |[M:2/4]!>(! z F, D2!>)! |[M:4/4]!p! z2 G,2 D2 G,2 | %41
 z2 F,2 D2 F,2 | z2 G,2 B,2 C2 |!<(! z2 [DF]2 z2 [CE]2!<)! |!mf! z2 [B,D]2 [D,,A,,D,]2 [F,,D,F,]2 | %45
!<(! [G,,G,]4- [G,,G,] [_B,,,_B,,]2- [B,,,B,,]/[=C,,=C,]/!<)! |!>(! [D,,D,]6 [F,,F,]2!>)! | %47
 [G,,G,]4- [G,,G,]!<(! [_B,,,_B,,]2- [B,,,B,,]/[=C,,=C,]/!<)! |!f! [D,,D,]6 [^C,,^C,]2 | %49
!mf! [B,,,B,,]6 [B,,,B,,]2 | [A,,,A,,]6 [A,,,A,,]2 | [G,,,G,,]2 [F,,,F,,]2 [E,,,E,,]2 [D,,,D,,]2 | %52
 z G,,E,G, =C2 B,2 | z E,A,B, ^C4 |!ff! z2 [A,D]4 [A,D]2 | z2 [A,C]4 [A,C]2 | z2 [G,B,]4 [G,B,]2 | %57
 z2 [G,_B,]4 [G,B,]2 | z2 [A,D]4 [A,D]2 | z2 [A,C]4 [A,C]2 | z2 [G,B,]4 [G,B,]2 | %61
!mf! [A,,,E,,A,,]8 |[K:treble]!p! [A,EA]8 |[K:bass]!p! [D,,D,]6- [D,,D,][D,,D,]- | %64
 [D,,D,]6- [D,,D,][D,,D,-] | [D,,D,]6- [D,,D,][D,,D,]- | [D,,D,]6 [C,,C,]2 | %67
 [B,,,B,,]4 [A,,,A,,]4 |!<(! [^G,,,^G,,]4 [A,,,A,,]2 [C,,C,]2!<)! | %69
 [E,,E,]3!>(! [E,,E,]- [E,,E,]2 [E,,E,]2!>)! |"_cresc." z2 A,C CF F2 |!mf! z A,, F,2 z A, C2 | %72
 z F, A,2 z F, A,2 | z D, B,2 z G, D2 | z A, E2 z A, F2 |!f! z F,B,D z F,A,D | z F,G,B, z D,F,A, | %77
 z A,,G,B, z E, G,2 | z2 [A,D]4 [A,D]2 |!>(! z2 [A,C]4 [A,C]2!>)! |!mf! z2 [G,B,]4 [G,B,]2 | %81
 z2 [G,_B,]4 [G,B,]2 |!mp!!>(! [D,,A,,D,]2 [D,,A,,D,]4 [D,,A,,D,]2!>)! | %83
!p! [D,,D,]2 [D,,A,,D,]4 [D,,A,,D,]2 |!pp! [D,,,D,]8 |] %85
V:7
 [D,,D,]6- [D,,D,][D,,D,]- | [D,,D,]6- [D,,D,][D,,D,]- | [D,,D,]6- [D,,D,][D,,D,]- | [D,,D,]8 | %4
 x8 | x8 | x8 | x8 | x8 | x8 | x8 | x8 | B,,4 A,,4 | G,,4 F,,4 | x8 | A,,8 | %16
 [D,,A,,D,]4 [D,,A,,D,]4 | !tenuto![D,,A,,D,]4 D,,2 F,,2 | x8 | x8 | x8 | x8 | x8 | x8 | x8 | x8 | %26
 B,,4 A,,4 | G,,4 F,,4 | E,,4 F,,3 G,, | A,,6 A,,,2 | D,,8 | D,6 C,2 | B,,6 z2 | G,,6 A,,2 | %34
 B,,6 A,,2 | G,,6 G,,F,, | E,,8 | B,,6 A,,2 | G,,4 F,,4 |[M:2/4] B,,4 |[M:4/4] _B,,8 | A,,8 | %42
 A,,8 | [D,,A,,D,]4 [D,,A,,D,]4 | [D,,A,,D,]4 x4 | x8 | x8 | x8 | x8 | x8 | x8 | x8 | %52
 [=C,,,=C,,]2 z4 B,,2 | A,,8 | [D,,D,]6- [D,,D,][D,,D,]- | [D,,D,]6- [D,,D,][D,,D,]- | %56
 [D,,D,]6- [D,,D,][D,,D,]- | [D,,D,]8 | [D,,D,]6- [D,,D,][D,,D,]- | [D,,D,]6- [D,,D,][D,,D,]- | %60
 [D,,D,]8 | x8 |[K:treble] x8 |[K:bass] x8 | x8 | x8 | x8 | x8 | x8 | x8 | [A,,,A,,]8 | D,,4 C,4 | %72
 B,,4 A,,4 | G,,4 B,,4 | C,4 D,3 C, | B,,4 A,,4 | G,,4 F,,4 | E,,4 A,,4 | %78
 [D,,D,]6- [D,,D,][D,,D,]- | [D,,D,]6- [D,,D,][D,,D,]- | [D,,D,]6- [D,,D,][D,,D,]- | [D,,D,]8 | %82
 x8 | x8 | x8 |] %85
V:8
 x8 | x8 | x8 | x6 D2 | x8 | x8 | x8 | x8 | x8 | x8 | [B,D]2 [B,D]4 [G,D]2 | =C3 D D2 ^C2 | %12
 z D D2 d2 fa | adgd e/f/e/d/ AF | G,4 [A,D]4 | x8 | x8 | !tenuto!d2 [Bd]2 [Ad]2 A2 | x8 | %19
 z x3 [DFA]4 | x8 | z4 [DFA]4 | x8 | x8 | x4 D2 [G,B,]2 | [A,E]8 | z ddd' d'dFA | %27
 ADGD E/F/E/D/ CD | [G,B,]4 [A,D]4 | D3 D C4 | x8 | x8 | x8 | x8 | x8 | x8 | x8 | x8 | x8 | %39
[M:2/4] z f3 |[M:4/4] x8 | x8 | x8 | x8 | d2 [Bd]2 [Ad]2 A2 | x8 | x8 | x8 | x4 [DFA]4 | x8 | x8 | %51
 x8 | x8 | [Gd]4 [A^c]2 x2 | x8 | x8 | x8 | x8 | x8 | x8 | x8 | x8 | x8 | x8 | x8 | x8 | x8 | x8 | %68
 E2 E2 [EA]2 [B,E]2 | A,2 C2 [D-A]2 [D^G]2 | [CEA]8 | z F A2 z F A2 | z E F2 z E F2 | z D G2 z G3 | %74
 z A3- A4 | d4 e2 d2 | x8 | [GBd]4 [EA]4 | [FA]2 F2 F2 [FA]2 | x8 | x8 | x8 | x8 | x8 | x8 |] %85

